Origami/64x64/apps/kaddressbook.svg

<svg width="64" height="64" version="1" xmlns="http://www.w3.org/2000/svg">
 <rect x="4" y="9" width="56" height="48" rx="4" ry="4" style="opacity:.2"/>
 <rect x="4" y="8" width="56" height="48" rx="4" ry="4" style="fill:#816130"/>
 <path d="m24 21c-3.3138 0-6 2.6864-6 6s2.6862 6 6 6 6-2.6864 6-6-2.6862-6-6-6zm20 0c-2.20914 0-4 1.791-4 4 0 2.21 1.79 4 4 4s4-1.79 4-4-1.79-4-4-4zm0 10c-8.0004 0.0052-8 6.400391-8 6.400391v1.599609h16v-1.597656s0-6.406344-8-6.402344zm-20 5c-12.0004 0.0068-12 8.333984-12 8.333984v1.666016h24v-1.666016s0-8.339984-12-8.333984z" style="opacity:.2"/>
 <path d="m24 20c-3.3138 0-6 2.6864-6 6s2.6862 6 6 6 6-2.6864 6-6-2.6862-6-6-6zm20 0c-2.20914 0-4 1.791-4 4 0 2.21 1.79 4 4 4s4-1.79 4-4-1.79-4-4-4zm0 10c-8.0004 0.0052-8 6.400391-8 6.400391v1.599609h16v-1.597656s0-6.406344-8-6.402344zm-20 5c-12.0004 0.0068-12 8.333984-12 8.333984v1.666016h24v-1.666016s0-8.339984-12-8.333984z" style="fill:#ffffff"/>
 <path d="m8 8c-2.216 0-4 1.784-4 4v1c0-2.216 1.784-4 4-4h48c2.216 0 4 1.784 4 4v-1c0-2.216-1.784-4-4-4h-48z" style="fill:#ffffff;opacity:.2"/>
</svg>

<svg xmlns="http://www.w3.org/2000/svg" width="64" height="64" version="1">
 <rect style="opacity:0.2" width="56" height="48" x="4" y="9" rx="4" ry="4"/>
 <rect style="fill:#816130" width="56" height="48" x="4" y="8" rx="4" ry="4"/>
 <path style="opacity:0.2" d="m 24,21 c -3.3138,0 -6,2.6864 -6,6 0,3.3136 2.6862,6 6,6 3.3138,0 6,-2.6864 6,-6 0,-3.3136 -2.6862,-6 -6,-6 z m 20,0 c -2.20914,0 -4,1.791 -4,4 0,2.21 1.79,4 4,4 2.21,0 4,-1.79 4,-4 0,-2.21 -1.79,-4 -4,-4 z m 0,10 c -8.0004,0.0052 -8,6.400391 -8,6.400391 L 36,39 52,39 52,37.402344 C 52,37.402344 52,30.996 44,31 Z M 24,36 C 11.9996,36.0068 12,44.333984 12,44.333984 L 12,46 36,46 36,44.333984 C 36,44.333984 36,35.994 24,36 Z"/>
 <path style="fill:#ffffff" d="m 24,20 c -3.3138,0 -6,2.6864 -6,6 0,3.3136 2.6862,6 6,6 3.3138,0 6,-2.6864 6,-6 0,-3.3136 -2.6862,-6 -6,-6 z m 20,0 c -2.20914,0 -4,1.791 -4,4 0,2.21 1.79,4 4,4 2.21,0 4,-1.79 4,-4 0,-2.21 -1.79,-4 -4,-4 z m 0,10 c -8.0004,0.0052 -8,6.400391 -8,6.400391 L 36,38 52,38 52,36.402344 C 52,36.402344 52,29.996 44,30 Z M 24,35 C 11.9996,35.0068 12,43.333984 12,43.333984 L 12,45 36,45 36,43.333984 C 36,43.333984 36,34.994 24,35 Z"/>
 <path style="opacity:0.2;fill:#ffffff" d="M 8 8 C 5.784 8 4 9.784 4 12 L 4 13 C 4 10.784 5.784 9 8 9 L 56 9 C 58.216 9 60 10.784 60 13 L 60 12 C 60 9.784 58.216 8 56 8 L 8 8 z"/>
</svg>
